X: 93
T: The Britains
P: Longways for as many as will
%R: jig
B: "The Dancing-Master: Containing Directions and Tunes for Dancing" printed by W. Pearson for John Walsh, London ca. 1709
S: 7: DMDfD http://digital.nls.uk/special-collections-of-printed-music/pageturner.cfm?id=89751228 p.215
Z: 2013 John Chambers <jc:trillian.mit.edu>
N: All the A notes are flatted, so the usual K:Cm signature would be better.
M: 6/4
L: 1/4
K: Cdor
% - - - - - - - - - - - - - - - - - - - - - - - - -
G |\
c>dc ccG | c>dc ccG | c>de d>e (d/c/) | =B2G G2_A |\
B_AG _AGF | def =B2_A | G>FE D2C | C3- C2 |]
[| D |\
E2F G>FE | GAB B2_A/G/ | c2d edc | def f2(e/d/) |\
g2_a b_ag | f2e fed | edc B2=B | c3- c2 |]
% - - - - - - - - Dance description - - - - - - - -
%%begintext align
%% The 1. man cast off to his left-hand into the 2. wo. place, and the 2. wo cast up into the 2. man's place, then turn both
%% hands into their own places; then the 1. wo. cast off to her right-hand, into the 2. man's place, and the 2. man cast up into
%% the 1. wo. place, then take both hands and turn into their own places; then the two men lead through the two we. and
%% cross over into each other's places, and then hands round and come into each other's places again; then the we. go between
%% the men and cross over into each other's places and hands round.
%% [DMDfD]
%%endtext
%%sep 1 8 500

%%sep 1 1 500
%%sep 1 1 500
